dist/assets/img/main/trust/kazlift.svg

<svg width="1393" height="131" viewBox="0 0 1393 131" fill="none" xmlns="http://www.w3.org/2000/svg">
<path d="M26.288 106V33.296L32.816 39.824H0.0480001V16.4H82.224V39.824H49.456L55.984 33.296V106H26.288ZM136.504 108.048C129.251 108.048 122.509 106.896 116.28 104.592C110.136 102.288 104.803 99.0453 100.28 94.864C95.7573 90.5973 92.216 85.6053 89.656 79.888C87.1813 74.1707 85.944 67.9413 85.944 61.2C85.944 54.3733 87.1813 48.144 89.656 42.512C92.216 36.7947 95.7573 31.8453 100.28 27.664C104.803 23.3973 110.136 20.112 116.28 17.808C122.509 15.504 129.251 14.352 136.504 14.352C143.843 14.352 150.584 15.504 156.728 17.808C162.872 20.112 168.205 23.3973 172.728 27.664C177.251 31.8453 180.749 36.7947 183.224 42.512C185.784 48.144 187.064 54.3733 187.064 61.2C187.064 67.9413 185.784 74.1707 183.224 79.888C180.749 85.6053 177.251 90.5973 172.728 94.864C168.205 99.0453 162.872 102.288 156.728 104.592C150.584 106.896 143.843 108.048 136.504 108.048ZM136.504 83.6C139.32 83.6 141.923 83.088 144.312 82.064C146.787 81.04 148.92 79.5893 150.712 77.712C152.589 75.7493 154.04 73.4027 155.064 70.672C156.088 67.856 156.6 64.6987 156.6 61.2C156.6 57.7013 156.088 54.5867 155.064 51.856C154.04 49.04 152.589 46.6933 150.712 44.816C148.92 42.8533 146.787 41.36 144.312 40.336C141.923 39.312 139.32 38.8 136.504 38.8C133.688 38.8 131.043 39.312 128.568 40.336C126.179 41.36 124.045 42.8533 122.168 44.816C120.376 46.6933 118.968 49.04 117.944 51.856C116.92 54.5867 116.408 57.7013 116.408 61.2C116.408 64.6987 116.92 67.856 117.944 70.672C118.968 73.4027 120.376 75.7493 122.168 77.712C124.045 79.5893 126.179 81.04 128.568 82.064C131.043 83.088 133.688 83.6 136.504 83.6ZM243.504 108.048C236.251 108.048 229.509 106.896 223.28 104.592C217.136 102.288 211.803 99.0453 207.28 94.864C202.757 90.5973 199.216 85.6053 196.656 79.888C194.181 74.1707 192.944 67.9413 192.944 61.2C192.944 54.3733 194.181 48.144 196.656 42.512C199.216 36.7947 202.757 31.8453 207.28 27.664C211.803 23.3973 217.136 20.112 223.28 17.808C229.509 15.504 236.251 14.352 243.504 14.352C250.843 14.352 257.584 15.504 263.728 17.808C269.872 20.112 275.205 23.3973 279.728 27.664C284.251 31.8453 287.749 36.7947 290.224 42.512C292.784 48.144 294.064 54.3733 294.064 61.2C294.064 67.9413 292.784 74.1707 290.224 79.888C287.749 85.6053 284.251 90.5973 279.728 94.864C275.205 99.0453 269.872 102.288 263.728 104.592C257.584 106.896 250.843 108.048 243.504 108.048ZM243.504 83.6C246.32 83.6 248.923 83.088 251.312 82.064C253.787 81.04 255.92 79.5893 257.712 77.712C259.589 75.7493 261.04 73.4027 262.064 70.672C263.088 67.856 263.6 64.6987 263.6 61.2C263.6 57.7013 263.088 54.5867 262.064 51.856C261.04 49.04 259.589 46.6933 257.712 44.816C255.92 42.8533 253.787 41.36 251.312 40.336C248.923 39.312 246.32 38.8 243.504 38.8C240.688 38.8 238.043 39.312 235.568 40.336C233.179 41.36 231.045 42.8533 229.168 44.816C227.376 46.6933 225.968 49.04 224.944 51.856C223.92 54.5867 223.408 57.7013 223.408 61.2C223.408 64.6987 223.92 67.856 224.944 70.672C225.968 73.4027 227.376 75.7493 229.168 77.712C231.045 79.5893 233.179 81.04 235.568 82.064C238.043 83.088 240.688 83.6 243.504 83.6ZM369.807 11.024L359.055 46.992L354.831 30.864C359.866 30.864 363.919 32.272 366.991 35.088C370.148 37.904 371.727 41.8293 371.727 46.864C371.727 51.8133 370.106 55.7813 366.863 58.768C363.706 61.7547 359.695 63.248 354.831 63.248C349.967 63.248 345.914 61.7547 342.671 58.768C339.514 55.7813 337.935 51.8133 337.935 46.864C337.935 45.4987 338.02 44.1333 338.191 42.768C338.447 41.4027 338.916 39.7387 339.599 37.776C340.367 35.8133 341.476 33.2533 342.927 30.096L351.887 11.024H369.807ZM406.927 11.024L396.175 46.992L391.951 30.864C396.986 30.864 401.039 32.272 404.111 35.088C407.268 37.904 408.847 41.8293 408.847 46.864C408.847 51.8133 407.226 55.7813 403.983 58.768C400.826 61.7547 396.815 63.248 391.951 63.248C387.087 63.248 383.034 61.7547 379.791 58.768C376.634 55.7813 375.055 51.8133 375.055 46.864C375.055 45.4987 375.14 44.1333 375.311 42.768C375.567 41.4027 376.036 39.7387 376.719 37.776C377.487 35.8133 378.596 33.2533 380.047 30.096L389.007 11.024H406.927ZM445.679 86.8L444.015 53.648L477.807 16.4H510.703L472.815 58.128L456.047 75.28L445.679 86.8ZM418.671 106V16.4H448.367V106H418.671ZM477.551 106L451.183 71.184L470.767 50.448L512.495 106H477.551ZM556.768 106V93.584L554.72 90.256V66.704C554.72 63.2907 553.653 60.688 551.52 58.896C549.472 57.104 546.101 56.208 541.408 56.208C538.251 56.208 535.051 56.72 531.808 57.744C528.565 58.6827 525.792 60.0053 523.488 61.712L514.272 42.64C518.368 40.08 523.275 38.1173 528.992 36.752C534.709 35.3867 540.299 34.704 545.76 34.704C557.792 34.704 567.093 37.392 573.664 42.768C580.32 48.144 583.648 56.6773 583.648 68.368V106H556.768ZM536.928 107.28C531.211 107.28 526.432 106.299 522.592 104.336C518.752 102.373 515.851 99.7707 513.888 96.528C511.925 93.2 510.944 89.5307 510.944 85.52C510.944 80.9973 512.096 77.1573 514.4 74C516.704 70.8427 520.203 68.4533 524.896 66.832C529.675 65.2107 535.691 64.4 542.944 64.4H557.536V78.352H547.552C544.48 78.352 542.219 78.864 540.768 79.888C539.403 80.8267 538.72 82.2773 538.72 84.24C538.72 85.8613 539.317 87.2267 540.512 88.336C541.792 89.36 543.499 89.872 545.632 89.872C547.595 89.872 549.387 89.36 551.008 88.336C552.715 87.2267 553.952 85.52 554.72 83.216L558.432 91.792C557.323 96.9973 554.976 100.88 551.392 103.44C547.808 106 542.987 107.28 536.928 107.28ZM593.59 106V89.36L630.838 47.888L635.574 57.104H594.614V35.984H658.998V52.624L621.75 94.096L617.014 84.88H660.406V106H593.59ZM670.046 106V16.4H700.254V82.576H740.702V106H670.046ZM748.15 106V35.984H777.078V106H748.15ZM762.614 30.352C757.323 30.352 753.099 28.944 749.942 26.128C746.785 23.312 745.206 19.8133 745.206 15.632C745.206 11.4507 746.785 7.95199 749.942 5.13599C753.099 2.31999 757.323 0.911995 762.614 0.911995C767.905 0.911995 772.129 2.23466 775.286 4.88C778.443 7.52533 780.022 10.9387 780.022 15.12C780.022 19.5573 778.443 23.2267 775.286 26.128C772.129 28.944 767.905 30.352 762.614 30.352ZM793.1 106V39.44C793.1 30.3947 795.788 23.184 801.164 17.808C806.625 12.432 814.348 9.744 824.332 9.744C827.404 9.744 830.476 10.0427 833.548 10.64C836.705 11.152 839.351 12.0053 841.484 13.2L834.572 33.296C833.633 32.8693 832.609 32.4853 831.5 32.144C830.391 31.8027 829.239 31.632 828.044 31.632C825.996 31.632 824.332 32.272 823.052 33.552C821.772 34.832 821.132 36.88 821.132 39.696V43.024L822.028 54.928V106H793.1ZM783.5 60.944V39.824H836.364V60.944H783.5ZM878.192 107.28C868.549 107.28 861.04 104.976 855.664 100.368C850.288 95.6747 847.6 88.5067 847.6 78.864V20.24H876.528V78.608C876.528 80.7413 877.083 82.4053 878.192 83.6C879.387 84.7947 880.837 85.392 882.544 85.392C885.019 85.392 887.195 84.752 889.072 83.472L895.984 103.568C893.765 104.848 891.077 105.787 887.92 106.384C884.848 106.981 881.605 107.28 878.192 107.28ZM838 60.944V39.824H890.864V60.944H838ZM950.635 108.048C943.382 108.048 936.683 106.939 930.539 104.72C924.48 102.416 919.19 99.1733 914.667 94.992C910.23 90.8107 906.774 85.8613 904.299 80.144C901.824 74.4267 900.587 68.112 900.587 61.2C900.587 54.288 901.824 47.9733 904.299 42.256C906.774 36.5387 910.272 31.5893 914.795 27.408C919.318 23.2267 924.651 20.0267 930.795 17.808C937.024 15.504 943.851 14.352 951.275 14.352C960.15 14.352 968.043 15.8453 974.955 18.832C981.952 21.8187 987.712 26.0853 992.235 31.632L972.907 48.656C970.091 45.4133 967.019 42.9813 963.691 41.36C960.448 39.6533 956.822 38.8 952.811 38.8C949.483 38.8 946.454 39.312 943.723 40.336C941.078 41.36 938.816 42.8533 936.939 44.816C935.062 46.7787 933.611 49.1253 932.587 51.856C931.563 54.5867 931.051 57.7013 931.051 61.2C931.051 64.528 931.563 67.6 932.587 70.416C933.611 73.1467 935.062 75.4933 936.939 77.456C938.816 79.4187 941.035 80.9547 943.595 82.064C946.24 83.088 949.184 83.6 952.427 83.6C955.84 83.6 959.168 83.0453 962.411 81.936C965.654 80.7413 969.11 78.736 972.779 75.92L989.675 96.656C984.214 100.325 977.984 103.141 970.987 105.104C963.99 107.067 957.206 108.048 950.635 108.048ZM963.435 92.816V58.768H989.675V96.656L963.435 92.816ZM1001.65 106V35.984H1029.17V57.104L1024.69 51.088C1026.82 45.6267 1030.24 41.5307 1034.93 38.8C1039.62 36.0693 1045.26 34.704 1051.83 34.704V60.304C1050.55 60.1333 1049.39 60.0053 1048.37 59.92C1047.43 59.8347 1046.45 59.792 1045.43 59.792C1041.07 59.792 1037.49 60.944 1034.67 63.248C1031.94 65.4667 1030.58 69.3493 1030.58 74.896V106H1001.65ZM1096.39 107.28C1088.46 107.28 1081.42 105.744 1075.27 102.672C1069.21 99.5147 1064.43 95.2053 1060.94 89.744C1057.44 84.2827 1055.69 78.0107 1055.69 70.928C1055.69 63.8453 1057.44 57.5733 1060.94 52.112C1064.43 46.6507 1069.21 42.384 1075.27 39.312C1081.42 36.24 1088.46 34.704 1096.39 34.704C1104.33 34.704 1111.37 36.24 1117.51 39.312C1123.66 42.384 1128.43 46.6507 1131.85 52.112C1135.35 57.5733 1137.1 63.8453 1137.1 70.928C1137.1 78.0107 1135.35 84.2827 1131.85 89.744C1128.43 95.2053 1123.66 99.5147 1117.51 102.672C1111.37 105.744 1104.33 107.28 1096.39 107.28ZM1096.39 84.752C1098.53 84.752 1100.45 84.24 1102.15 83.216C1103.86 82.192 1105.22 80.656 1106.25 78.608C1107.27 76.4747 1107.78 73.9147 1107.78 70.928C1107.78 67.856 1107.27 65.3387 1106.25 63.376C1105.22 61.328 1103.86 59.792 1102.15 58.768C1100.45 57.744 1098.53 57.232 1096.39 57.232C1094.26 57.232 1092.34 57.744 1090.63 58.768C1088.93 59.792 1087.56 61.328 1086.54 63.376C1085.51 65.3387 1085 67.856 1085 70.928C1085 73.9147 1085.51 76.4747 1086.54 78.608C1087.56 80.656 1088.93 82.192 1090.63 83.216C1092.34 84.24 1094.26 84.752 1096.39 84.752ZM1175.33 107.28C1169.79 107.28 1164.75 106.171 1160.23 103.952C1155.79 101.648 1152.29 98.1067 1149.73 93.328C1147.17 88.464 1145.89 82.2347 1145.89 74.64V35.984H1174.82V69.648C1174.82 74.5973 1175.63 78.0533 1177.25 80.016C1178.88 81.9787 1181.09 82.96 1183.91 82.96C1185.62 82.96 1187.2 82.5333 1188.65 81.68C1190.18 80.7413 1191.42 79.248 1192.36 77.2C1193.3 75.0667 1193.77 72.2933 1193.77 68.88V35.984H1222.69V106H1195.17V85.776L1200.68 91.28C1198.2 96.7413 1194.66 100.795 1190.05 103.44C1185.53 106 1180.62 107.28 1175.33 107.28ZM1282.25 107.28C1276.19 107.28 1271.15 106 1267.14 103.44C1263.22 100.795 1260.31 96.8267 1258.44 91.536C1256.56 86.16 1255.62 79.3333 1255.62 71.056C1255.62 62.608 1256.47 55.7387 1258.18 50.448C1259.97 45.072 1262.83 41.104 1266.76 38.544C1270.68 35.984 1275.85 34.704 1282.25 34.704C1288.39 34.704 1294.02 36.1973 1299.14 39.184C1304.26 42.0853 1308.36 46.2667 1311.43 51.728C1314.5 57.104 1316.04 63.5467 1316.04 71.056C1316.04 78.5653 1314.5 85.0507 1311.43 90.512C1308.36 95.888 1304.26 100.027 1299.14 102.928C1294.02 105.829 1288.39 107.28 1282.25 107.28ZM1235.53 130.832V35.984H1263.05V45.456L1263.17 71.056L1264.45 96.656V130.832H1235.53ZM1275.33 84.752C1277.47 84.752 1279.39 84.24 1281.09 83.216C1282.8 82.192 1284.17 80.656 1285.19 78.608C1286.21 76.56 1286.73 74.0427 1286.73 71.056C1286.73 67.984 1286.21 65.424 1285.19 63.376C1284.17 61.328 1282.8 59.792 1281.09 58.768C1279.39 57.744 1277.47 57.232 1275.33 57.232C1273.2 57.232 1271.28 57.744 1269.57 58.768C1267.87 59.792 1266.5 61.328 1265.48 63.376C1264.45 65.424 1263.94 67.984 1263.94 71.056C1263.94 74.0427 1264.45 76.56 1265.48 78.608C1266.5 80.656 1267.87 82.192 1269.57 83.216C1271.28 84.24 1273.2 84.752 1275.33 84.752ZM1323.86 61.968L1334.61 26L1338.83 42.128C1333.88 42.128 1329.83 40.72 1326.67 37.904C1323.51 35.0027 1321.94 31.0773 1321.94 26.128C1321.94 21.0933 1323.51 17.1253 1326.67 14.224C1329.91 11.2373 1333.97 9.744 1338.83 9.744C1343.7 9.744 1347.71 11.2373 1350.86 14.224C1354.11 17.1253 1355.73 21.0933 1355.73 26.128C1355.73 27.4933 1355.6 28.8587 1355.34 30.224C1355.17 31.5893 1354.75 33.2533 1354.06 35.216C1353.38 37.0933 1352.27 39.6533 1350.74 42.896L1341.78 61.968H1323.86ZM1360.98 61.968L1371.73 26L1375.95 42.128C1371 42.128 1366.95 40.72 1363.79 37.904C1360.63 35.0027 1359.06 31.0773 1359.06 26.128C1359.06 21.0933 1360.63 17.1253 1363.79 14.224C1367.03 11.2373 1371.09 9.744 1375.95 9.744C1380.82 9.744 1384.83 11.2373 1387.98 14.224C1391.23 17.1253 1392.85 21.0933 1392.85 26.128C1392.85 27.4933 1392.72 28.8587 1392.46 30.224C1392.29 31.5893 1391.87 33.2533 1391.18 35.216C1390.5 37.0933 1389.39 39.6533 1387.86 42.896L1378.9 61.968H1360.98Z" fill="#101010"/>
</svg>

<svg width="1393" height="131" fill="none" xmlns="http://www.w3.org/2000/svg"><path d="M26.288 106V33.296l6.528 6.528H.048V16.4h82.176v23.424H49.456l6.528-6.528V106H26.288zm110.216 2.048c-7.253 0-13.995-1.152-20.224-3.456-6.144-2.304-11.477-5.547-16-9.728-4.523-4.267-8.064-9.259-10.624-14.976-2.475-5.717-3.712-11.947-3.712-18.688 0-6.827 1.237-13.056 3.712-18.688 2.56-5.717 6.101-10.667 10.624-14.848 4.523-4.267 9.856-7.552 16-9.856 6.229-2.304 12.971-3.456 20.224-3.456 7.339 0 14.08 1.152 20.224 3.456 6.144 2.304 11.477 5.59 16 9.856 4.523 4.181 8.021 9.13 10.496 14.848 2.56 5.632 3.84 11.861 3.84 18.688 0 6.741-1.28 12.97-3.84 18.688a44.892 44.892 0 01-10.496 14.976c-4.523 4.181-9.856 7.424-16 9.728-6.144 2.304-12.885 3.456-20.224 3.456zm0-24.448c2.816 0 5.419-.512 7.808-1.536 2.475-1.024 4.608-2.475 6.4-4.352 1.877-1.963 3.328-4.31 4.352-7.04 1.024-2.816 1.536-5.973 1.536-9.472 0-3.499-.512-6.613-1.536-9.344-1.024-2.816-2.475-5.163-4.352-7.04a17.745 17.745 0 00-6.4-4.48c-2.389-1.024-4.992-1.536-7.808-1.536s-5.461.512-7.936 1.536c-2.389 1.024-4.523 2.517-6.4 4.48-1.792 1.877-3.2 4.224-4.224 7.04-1.024 2.73-1.536 5.845-1.536 9.344 0 3.499.512 6.656 1.536 9.472 1.024 2.73 2.432 5.077 4.224 7.04a20.283 20.283 0 006.4 4.352c2.475 1.024 5.12 1.536 7.936 1.536zm107 24.448c-7.253 0-13.995-1.152-20.224-3.456-6.144-2.304-11.477-5.547-16-9.728-4.523-4.267-8.064-9.259-10.624-14.976-2.475-5.717-3.712-11.947-3.712-18.688 0-6.827 1.237-13.056 3.712-18.688 2.56-5.717 6.101-10.667 10.624-14.848 4.523-4.267 9.856-7.552 16-9.856 6.229-2.304 12.971-3.456 20.224-3.456 7.339 0 14.08 1.152 20.224 3.456 6.144 2.304 11.477 5.59 16 9.856 4.523 4.181 8.021 9.13 10.496 14.848 2.56 5.632 3.84 11.861 3.84 18.688 0 6.741-1.28 12.97-3.84 18.688a44.892 44.892 0 01-10.496 14.976c-4.523 4.181-9.856 7.424-16 9.728-6.144 2.304-12.885 3.456-20.224 3.456zm0-24.448c2.816 0 5.419-.512 7.808-1.536 2.475-1.024 4.608-2.475 6.4-4.352 1.877-1.963 3.328-4.31 4.352-7.04 1.024-2.816 1.536-5.973 1.536-9.472 0-3.499-.512-6.613-1.536-9.344-1.024-2.816-2.475-5.163-4.352-7.04a17.745 17.745 0 00-6.4-4.48c-2.389-1.024-4.992-1.536-7.808-1.536s-5.461.512-7.936 1.536c-2.389 1.024-4.523 2.517-6.4 4.48-1.792 1.877-3.2 4.224-4.224 7.04-1.024 2.73-1.536 5.845-1.536 9.344 0 3.499.512 6.656 1.536 9.472 1.024 2.73 2.432 5.077 4.224 7.04a20.283 20.283 0 006.4 4.352c2.475 1.024 5.12 1.536 7.936 1.536zm126.303-72.576l-10.752 35.968-4.224-16.128c5.035 0 9.088 1.408 12.16 4.224 3.157 2.816 4.736 6.741 4.736 11.776 0 4.95-1.621 8.917-4.864 11.904-3.157 2.987-7.168 4.48-12.032 4.48s-8.917-1.493-12.16-4.48c-3.157-2.987-4.736-6.955-4.736-11.904 0-1.365.085-2.73.256-4.096.256-1.365.725-3.03 1.408-4.992.768-1.963 1.877-4.523 3.328-7.68l8.96-19.072h17.92zm37.12 0l-10.752 35.968-4.224-16.128c5.035 0 9.088 1.408 12.16 4.224 3.157 2.816 4.736 6.741 4.736 11.776 0 4.95-1.621 8.917-4.864 11.904-3.157 2.987-7.168 4.48-12.032 4.48s-8.917-1.493-12.16-4.48c-3.157-2.987-4.736-6.955-4.736-11.904 0-1.365.085-2.73.256-4.096.256-1.365.725-3.03 1.408-4.992.768-1.963 1.877-4.523 3.328-7.68l8.96-19.072h17.92zM445.679 86.8l-1.664-33.152L477.807 16.4h32.896l-37.888 41.728-16.768 17.152-10.368 11.52zM418.671 106V16.4h29.696V106h-29.696zm58.88 0l-26.368-34.816 19.584-20.736L512.495 106h-34.944zm79.217 0V93.584l-2.048-3.328V66.704c0-3.413-1.067-6.016-3.2-7.808-2.048-1.792-5.419-2.688-10.112-2.688-3.157 0-6.357.512-9.6 1.536-3.243.939-6.016 2.261-8.32 3.968l-9.216-19.072c4.096-2.56 9.003-4.523 14.72-5.888 5.717-1.365 11.307-2.048 16.768-2.048 12.032 0 21.333 2.688 27.904 8.064 6.656 5.376 9.984 13.91 9.984 25.6V106h-26.88zm-19.84 1.28c-5.717 0-10.496-.981-14.336-2.944s-6.741-4.565-8.704-7.808c-1.963-3.328-2.944-6.997-2.944-11.008 0-4.523 1.152-8.363 3.456-11.52 2.304-3.157 5.803-5.547 10.496-7.168 4.779-1.621 10.795-2.432 18.048-2.432h14.592v13.952h-9.984c-3.072 0-5.333.512-6.784 1.536-1.365.939-2.048 2.39-2.048 4.352 0 1.621.597 2.987 1.792 4.096 1.28 1.024 2.987 1.536 5.12 1.536 1.963 0 3.755-.512 5.376-1.536 1.707-1.11 2.944-2.816 3.712-5.12l3.712 8.576c-1.109 5.205-3.456 9.088-7.04 11.648-3.584 2.56-8.405 3.84-14.464 3.84zM593.59 106V89.36l37.248-41.472 4.736 9.216h-40.96v-21.12h64.384v16.64L621.75 94.096l-4.736-9.216h43.392V106H593.59zm76.456 0V16.4h30.208v66.176h40.448V106h-70.656zm78.104 0V35.984h28.928V106H748.15zm14.464-75.648c-5.291 0-9.515-1.408-12.672-4.224-3.157-2.816-4.736-6.315-4.736-10.496s1.579-7.68 4.736-10.496c3.157-2.816 7.381-4.224 12.672-4.224s9.515 1.323 12.672 3.968 4.736 6.059 4.736 10.24c0 4.437-1.579 8.107-4.736 11.008-3.157 2.816-7.381 4.224-12.672 4.224zM793.1 106V39.44c0-9.045 2.688-16.256 8.064-21.632 5.461-5.376 13.184-8.064 23.168-8.064 3.072 0 6.144.299 9.216.896 3.157.512 5.803 1.365 7.936 2.56l-6.912 20.096a25.697 25.697 0 00-3.072-1.152 11.683 11.683 0 00-3.456-.512c-2.048 0-3.712.64-4.992 1.92-1.28 1.28-1.92 3.328-1.92 6.144v3.328l.896 11.904V106H793.1zm-9.6-45.056v-21.12h52.864v21.12H783.5zm94.692 46.336c-9.643 0-17.152-2.304-22.528-6.912-5.376-4.693-8.064-11.861-8.064-21.504V20.24h28.928v58.368c0 2.133.555 3.797 1.664 4.992 1.195 1.195 2.645 1.792 4.352 1.792 2.475 0 4.651-.64 6.528-1.92l6.912 20.096c-2.219 1.28-4.907 2.219-8.064 2.816-3.072.597-6.315.896-9.728.896zM838 60.944v-21.12h52.864v21.12H838zm112.635 47.104c-7.253 0-13.952-1.109-20.096-3.328-6.059-2.304-11.349-5.547-15.872-9.728-4.437-4.181-7.893-9.13-10.368-14.848-2.475-5.717-3.712-12.032-3.712-18.944 0-6.912 1.237-13.227 3.712-18.944 2.475-5.717 5.973-10.667 10.496-14.848 4.523-4.181 9.856-7.381 16-9.6 6.229-2.304 13.056-3.456 20.48-3.456 8.875 0 16.768 1.493 23.68 4.48 6.997 2.987 12.757 7.253 17.28 12.8l-19.328 17.024c-2.816-3.243-5.888-5.675-9.216-7.296-3.243-1.707-6.869-2.56-10.88-2.56-3.328 0-6.357.512-9.088 1.536-2.645 1.024-4.907 2.517-6.784 4.48-1.877 1.963-3.328 4.31-4.352 7.04-1.024 2.73-1.536 5.845-1.536 9.344 0 3.328.512 6.4 1.536 9.216 1.024 2.73 2.475 5.077 4.352 7.04 1.877 1.963 4.096 3.499 6.656 4.608 2.645 1.024 5.589 1.536 8.832 1.536a30.65 30.65 0 009.984-1.664c3.243-1.195 6.699-3.2 10.368-6.016l16.896 20.736c-5.461 3.669-11.691 6.485-18.688 8.448-6.997 1.963-13.781 2.944-20.352 2.944zm12.8-15.232V58.768h26.24v37.888l-26.24-3.84zM1001.65 106V35.984h27.52v21.12l-4.48-6.016c2.13-5.461 5.55-9.557 10.24-12.288 4.69-2.73 10.33-4.096 16.9-4.096v25.6c-1.28-.17-2.44-.299-3.46-.384a32.66 32.66 0 00-2.94-.128c-4.36 0-7.94 1.152-10.76 3.456-2.73 2.219-4.09 6.101-4.09 11.648V106h-28.93zm94.74 1.28c-7.93 0-14.97-1.536-21.12-4.608-6.06-3.157-10.84-7.467-14.33-12.928-3.5-5.461-5.25-11.733-5.25-18.816 0-7.083 1.75-13.355 5.25-18.816 3.49-5.461 8.27-9.728 14.33-12.8 6.15-3.072 13.19-4.608 21.12-4.608 7.94 0 14.98 1.536 21.12 4.608 6.15 3.072 10.92 7.339 14.34 12.8 3.5 5.461 5.25 11.733 5.25 18.816 0 7.083-1.75 13.355-5.25 18.816-3.42 5.461-8.19 9.77-14.34 12.928-6.14 3.072-13.18 4.608-21.12 4.608zm0-22.528c2.14 0 4.06-.512 5.76-1.536 1.71-1.024 3.07-2.56 4.1-4.608 1.02-2.133 1.53-4.693 1.53-7.68 0-3.072-.51-5.59-1.53-7.552-1.03-2.048-2.39-3.584-4.1-4.608-1.7-1.024-3.62-1.536-5.76-1.536-2.13 0-4.05.512-5.76 1.536-1.7 1.024-3.07 2.56-4.09 4.608-1.03 1.963-1.54 4.48-1.54 7.552 0 2.987.51 5.547 1.54 7.68 1.02 2.048 2.39 3.584 4.09 4.608 1.71 1.024 3.63 1.536 5.76 1.536zm78.94 22.528c-5.54 0-10.58-1.109-15.1-3.328-4.44-2.304-7.94-5.845-10.5-10.624-2.56-4.864-3.84-11.093-3.84-18.688V35.984h28.93v33.664c0 4.95.81 8.405 2.43 10.368 1.63 1.963 3.84 2.944 6.66 2.944a9.18 9.18 0 004.74-1.28c1.53-.939 2.77-2.432 3.71-4.48.94-2.133 1.41-4.907 1.41-8.32V35.984h28.92V106h-27.52V85.776l5.51 5.504c-2.48 5.461-6.02 9.515-10.63 12.16-4.52 2.56-9.43 3.84-14.72 3.84zm106.92 0c-6.06 0-11.1-1.28-15.11-3.84-3.92-2.645-6.83-6.613-8.7-11.904-1.88-5.376-2.82-12.203-2.82-20.48 0-8.448.85-15.317 2.56-20.608 1.79-5.376 4.65-9.344 8.58-11.904 3.92-2.56 9.09-3.84 15.49-3.84 6.14 0 11.77 1.493 16.89 4.48 5.12 2.901 9.22 7.083 12.29 12.544 3.07 5.376 4.61 11.819 4.61 19.328 0 7.51-1.54 13.995-4.61 19.456-3.07 5.376-7.17 9.515-12.29 12.416-5.12 2.901-10.75 4.352-16.89 4.352zm-46.72 23.552V35.984h27.52v9.472l.12 25.6 1.28 25.6v34.176h-28.92zm39.8-46.08c2.14 0 4.06-.512 5.76-1.536 1.71-1.024 3.08-2.56 4.1-4.608 1.02-2.048 1.54-4.565 1.54-7.552 0-3.072-.52-5.632-1.54-7.68s-2.39-3.584-4.1-4.608c-1.7-1.024-3.62-1.536-5.76-1.536-2.13 0-4.05.512-5.76 1.536-1.7 1.024-3.07 2.56-4.09 4.608-1.03 2.048-1.54 4.608-1.54 7.68 0 2.987.51 5.504 1.54 7.552 1.02 2.048 2.39 3.584 4.09 4.608 1.71 1.024 3.63 1.536 5.76 1.536zm48.53-22.784L1334.61 26l4.22 16.128c-4.95 0-9-1.408-12.16-4.224-3.16-2.901-4.73-6.827-4.73-11.776 0-5.035 1.57-9.003 4.73-11.904 3.24-2.987 7.3-4.48 12.16-4.48 4.87 0 8.88 1.493 12.03 4.48 3.25 2.901 4.87 6.87 4.87 11.904 0 1.365-.13 2.73-.39 4.096-.17 1.365-.59 3.03-1.28 4.992-.68 1.877-1.79 4.437-3.32 7.68l-8.96 19.072h-17.92zm37.12 0L1371.73 26l4.22 16.128c-4.95 0-9-1.408-12.16-4.224-3.16-2.901-4.73-6.827-4.73-11.776 0-5.035 1.57-9.003 4.73-11.904 3.24-2.987 7.3-4.48 12.16-4.48 4.87 0 8.88 1.493 12.03 4.48 3.25 2.901 4.87 6.87 4.87 11.904 0 1.365-.13 2.73-.39 4.096-.17 1.365-.59 3.03-1.28 4.992-.68 1.877-1.79 4.437-3.32 7.68l-8.96 19.072h-17.92z" fill="#101010"/></svg>
